X:122
%%pagewidth 9in
%%vocalfont Baskerville10Pro 15
T:With a fading
M:6/8
L:1/8
K:F
%%score 1 2
V:1 clef-treble
V:2 clef-bass octave=-1
V:1
C|[A,F]2C[CF]2G|(A>B)A[EG]2E&Fx2x3|[CF]2F[Ac]2c|
w:The cour-tiers scorn us coun-*try clowns; We coun-try clowns do
V:2
z|F,3A,3|F,3C3|A,3F,3|
V:1
(d3/2e)f/ [Ge]2e&Bx2x3|[Ff]ed [Fc]BA|[EG]AB [FA]2[FA]|!>![FA]3-[FA]GF|
w:scorn* the court, For we are as mer-ry up-on* the downs As you* are at
V:2
B,3C3|D3A,3|C3F,3|F,A,CF2z|
V:1
!>![EG]3!>!C2C|[A,F]GA [CA]GF|[FA]czz2||
w:mid-night with all your* sport. With a fad-ing.
V:2
CEGc2z|F,3F3|F2zz2||

